X: 2303
M: C
L: 1/8
K: G
vduc |\
(BG)G2 dGBd | (3(efg) dB A2 dc |\
bgaf gfed | (3(efg) dBA2 :|
|: Ac |\
bgaf gfed | (3(efg) dBA2 :|


